build/img/Premium-plan.svg

<svg width="146" height="167" viewBox="0 0 146 167" fill="none" xmlns="http://www.w3.org/2000/svg">
<path fill-rule="evenodd" clip-rule="evenodd" d="M52.0247 40.6874C52.6815 39.2617 53.4508 38.1541 53.9591 37.5702C53.9691 38.9475 53.7568 40.183 53.4281 41.2568C54.4395 41.7447 55.4906 42.4279 56.4948 43.3705C55.7209 43.3471 54.3856 43.1597 52.893 42.6736C52.205 44.1908 51.3353 45.2384 50.7651 45.7261C50.8037 44.4492 51.0724 43.2255 51.4498 42.1217C50.3832 41.6491 49.3024 41.0153 48.3389 40.1765C49.0841 40.0891 50.4438 40.1621 52.0247 40.6874Z" fill="url(#paint0_linear)"/>
<path fill-rule="evenodd" clip-rule="evenodd" d="M46.8334 26.4047C47.2705 25.4557 47.7825 24.7185 48.1209 24.3298C48.1276 25.2466 47.9863 26.069 47.7675 26.7837C48.4407 27.1085 49.1403 27.5632 49.8087 28.1907C49.2936 28.1751 48.4048 28.0503 47.4113 27.7268C46.9533 28.7367 46.3744 29.434 45.9949 29.7586C46.0206 28.9087 46.1994 28.0942 46.4506 27.3594C45.7407 27.0448 45.0213 26.6229 44.3799 26.0646C44.876 26.0065 45.781 26.055 46.8334 26.4047Z" fill="url(#paint1_linear)"/>
<path fill-rule="evenodd" clip-rule="evenodd" d="M32.7827 12.2071C33.4394 10.7814 34.2087 9.67386 34.7171 9.0899C34.727 10.4673 34.5147 11.7027 34.186 12.7765C35.1974 13.2644 36.2485 13.9476 37.2528 14.8902C36.4789 14.8668 35.1435 14.6794 33.651 14.1933C32.9629 15.7105 32.0932 16.7581 31.523 17.2458C31.5616 15.969 31.8303 14.7452 32.2077 13.6414C31.1411 13.1688 30.0604 12.5349 29.0969 11.6962C29.8421 11.6088 31.2017 11.6818 32.7827 12.2071Z" fill="url(#paint2_linear)"/>
<path fill-rule="evenodd" clip-rule="evenodd" d="M30.5563 44.1723C31.5226 42.0747 32.6543 40.4453 33.4022 39.5861C33.4169 41.6125 33.1046 43.4302 32.621 45.01C34.109 45.7278 35.6553 46.7329 37.1328 48.1198C35.9943 48.0854 34.0297 47.8096 31.8338 47.0944C30.8215 49.3266 29.542 50.8678 28.703 51.5854C28.7599 49.7068 29.1551 47.9065 29.7104 46.2824C28.1412 45.5871 26.5511 44.6546 25.1336 43.4206C26.23 43.2921 28.2303 43.3995 30.5563 44.1723Z" fill="url(#paint3_linear)"/>
<circle cx="36.3693" cy="29.8161" r="0.846528" transform="rotate(21.3865 36.3693 29.8161)" fill="#2F235A"/>
<circle cx="57.3296" cy="19.1722" r="0.846528" transform="rotate(21.3865 57.3296 19.1722)" fill="#FE9076"/>
<circle cx="17.0945" cy="23.7964" r="0.846528" transform="rotate(21.3865 17.0945 23.7964)" fill="#FFA400"/>
<circle cx="35.2724" cy="57.8818" r="0.846528" transform="rotate(21.3865 35.2724 57.8818)" fill="#23BB86"/>
<path d="M56.6865 15.1261C55.863 11.9807 52.8903 4.78681 47.5884 1.17528" stroke="#FE9076" stroke-width="0.736823" stroke-linecap="round"/>
<path d="M14.5961 20.3814C12.5468 17.8569 6.86814 12.5333 0.54785 11.4343" stroke="#FFA400" stroke-width="0.736823" stroke-linecap="round"/>
<path d="M31.6704 59.112C29.8543 59.7743 25.2825 61.8848 21.5241 65.0281" stroke="#23BB86" stroke-width="0.736823" stroke-linecap="round"/>
<path fill-rule="evenodd" clip-rule="evenodd" d="M93.9753 40.6874C93.3185 39.2617 92.5492 38.1541 92.0409 37.5702C92.0309 38.9475 92.2432 40.183 92.5719 41.2568C91.5605 41.7447 90.5094 42.4279 89.5052 43.3705C90.2791 43.3471 91.6144 43.1597 93.107 42.6736C93.795 44.1908 94.6647 45.2384 95.2349 45.7261C95.1963 44.4492 94.9276 43.2255 94.5502 42.1217C95.6168 41.6491 96.6976 41.0153 97.6611 40.1765C96.9159 40.0891 95.5562 40.1621 93.9753 40.6874Z" fill="url(#paint4_linear)"/>
<path fill-rule="evenodd" clip-rule="evenodd" d="M99.1666 26.4047C98.7295 25.4557 98.2175 24.7185 97.8791 24.3298C97.8724 25.2466 98.0137 26.069 98.2325 26.7837C97.5593 27.1085 96.8597 27.5632 96.1913 28.1907C96.7064 28.1751 97.5952 28.0503 98.5887 27.7268C99.0467 28.7367 99.6256 29.434 100.005 29.7586C99.9794 28.9087 99.8006 28.0942 99.5494 27.3594C100.259 27.0448 100.979 26.6229 101.62 26.0646C101.124 26.0065 100.219 26.055 99.1666 26.4047Z" fill="url(#paint5_linear)"/>
<path fill-rule="evenodd" clip-rule="evenodd" d="M113.217 12.2071C112.561 10.7814 111.791 9.67386 111.283 9.0899C111.273 10.4673 111.485 11.7027 111.814 12.7765C110.803 13.2644 109.752 13.9476 108.747 14.8902C109.521 14.8668 110.856 14.6794 112.349 14.1933C113.037 15.7105 113.907 16.7581 114.477 17.2458C114.438 15.969 114.17 14.7452 113.792 13.6414C114.859 13.1688 115.94 12.5349 116.903 11.6962C116.158 11.6088 114.798 11.6818 113.217 12.2071Z" fill="url(#paint6_linear)"/>
<path fill-rule="evenodd" clip-rule="evenodd" d="M115.444 44.1723C114.477 42.0747 113.346 40.4453 112.598 39.5861C112.583 41.6125 112.895 43.4302 113.379 45.01C111.891 45.7278 110.345 46.7329 108.867 48.1198C110.006 48.0854 111.97 47.8096 114.166 47.0944C115.178 49.3266 116.458 50.8678 117.297 51.5854C117.24 49.7068 116.845 47.9065 116.29 46.2824C117.859 45.5871 119.449 44.6546 120.866 43.4206C119.77 43.2921 117.77 43.3995 115.444 44.1723Z" fill="url(#paint7_linear)"/>
<circle r="0.846528" transform="matrix(-0.931142 0.364658 0.364658 0.931142 109.631 29.8161)" fill="#2F235A"/>
<circle r="0.846528" transform="matrix(-0.931142 0.364658 0.364658 0.931142 88.6704 19.1722)" fill="#FE9076"/>
<circle r="0.846528" transform="matrix(-0.931142 0.364658 0.364658 0.931142 128.905 23.7964)" fill="#FFA400"/>
<circle r="0.846528" transform="matrix(-0.931142 0.364658 0.364658 0.931142 110.728 57.8818)" fill="#23BB86"/>
<path d="M89.3135 15.1261C90.137 11.9807 93.1097 4.78681 98.4116 1.17528" stroke="#FE9076" stroke-width="0.736823" stroke-linecap="round"/>
<path d="M131.404 20.3814C133.453 17.8569 139.132 12.5333 145.452 11.4343" stroke="#FFA400" stroke-width="0.736823" stroke-linecap="round"/>
<path d="M114.33 59.112C116.146 59.7743 120.717 61.8848 124.476 65.0281" stroke="#23BB86" stroke-width="0.736823" stroke-linecap="round"/>
<rect x="26.8154" y="104.439" width="89.8505" height="62.1103" fill="url(#paint8_linear)"/>
<mask id="mask0" mask-type="alpha" maskUnits="userSpaceOnUse" x="26" y="104" width="91" height="63">
<rect x="26.8154" y="104.439" width="89.8505" height="62.1103" fill="#C4C4C4"/>
</mask>
<g mask="url(#mask0)">
<path d="M31.0668 102.858L92.2488 102.858L78.4202 126.869L17.2382 126.869L31.0668 102.858Z" fill="black" fill-opacity="0.07"/>
<rect x="87.9173" y="104.439" width="89.8505" height="62.1103" fill="url(#paint9_linear)"/>
</g>
<path d="M26.736 104.439L87.918 104.439L76.0995 124.162L14.9175 124.162L26.736 104.439Z" fill="url(#paint10_linear)"/>
<mask id="mask1" mask-type="alpha" maskUnits="userSpaceOnUse" x="87" y="104" width="30" height="63">
<rect x="87.9179" y="104.439" width="28.7479" height="62.1103" fill="#C4C4C4"/>
</mask>
<g mask="url(#mask1)">
<path d="M113.166 104.336L84.3731 104.336L97.9024 127.043L126.695 127.043L113.166 104.336Z" fill="black" fill-opacity="0.07"/>
</g>
<path d="M116.711 104.439L87.9179 104.439L99.7365 124.162L128.529 124.162L116.711 104.439Z" fill="url(#paint11_linear)"/>
<circle cx="56.7434" cy="88.6195" r="8.49082" fill="url(#paint12_linear)"/>
<circle cx="89.3727" cy="67.6864" r="8.20473" fill="url(#paint13_linear)"/>
<circle cx="58.6179" cy="57.1029" r="6.61631" fill="url(#paint14_linear)"/>
<circle cx="76.9911" cy="41.9936" r="5.98519" fill="url(#paint15_linear)"/>
<circle cx="65.2343" cy="25.3705" r="4.6365" fill="url(#paint16_linear)"/>
<circle cx="73.201" cy="66.0365" r="1.65" fill="#FFA800" fill-opacity="0.23"/>
<circle cx="100.642" cy="52.1366" r="1.65" fill="#FFA800" fill-opacity="0.23"/>
<circle cx="102.292" cy="25.3705" r="1.65" fill="#FFA800" fill-opacity="0.23"/>
<circle cx="46.6025" cy="28.357" r="1.65" fill="#FFA800" fill-opacity="0.23"/>
<circle cx="80.2009" cy="92.284" r="1.65" fill="#FFA800" fill-opacity="0.23"/>
<circle cx="38.7964" cy="62.7364" r="1.65" fill="#FFA800" fill-opacity="0.23"/>
<path d="M116.878 104.733H26.7443L12.902 19.3853H133.5L116.878 104.733Z" fill="url(#paint17_linear)"/>
<defs>
<linearGradient id="paint0_linear" x1="53.7092" y1="38.4735" x2="50.7102" y2="46.1314" gradientUnits="userSpaceOnUse">
<stop stop-color="#FFE89E"/>
<stop offset="1" stop-color="#FFBF1A"/>
</linearGradient>
<linearGradient id="paint1_linear" x1="47.9546" y1="24.9311" x2="45.9583" y2="30.0284" gradientUnits="userSpaceOnUse">
<stop stop-color="#FFE89E"/>
<stop offset="1" stop-color="#FFBF1A"/>
</linearGradient>
<linearGradient id="paint2_linear" x1="34.4672" y1="9.99326" x2="31.4681" y2="17.6511" gradientUnits="userSpaceOnUse">
<stop stop-color="#FFE89E"/>
<stop offset="1" stop-color="#FFBF1A"/>
</linearGradient>
<linearGradient id="paint3_linear" x1="33.0346" y1="40.9152" x2="28.6223" y2="52.1817" gradientUnits="userSpaceOnUse">
<stop stop-color="#FFE89E"/>
<stop offset="1" stop-color="#FFBF1A"/>
</linearGradient>
<linearGradient id="paint4_linear" x1="92.2908" y1="38.4735" x2="95.2898" y2="46.1314" gradientUnits="userSpaceOnUse">
<stop stop-color="#FFE89E"/>
<stop offset="1" stop-color="#FFBF1A"/>
</linearGradient>
<linearGradient id="paint5_linear" x1="98.0454" y1="24.9311" x2="100.042" y2="30.0284" gradientUnits="userSpaceOnUse">
<stop stop-color="#FFE89E"/>
<stop offset="1" stop-color="#FFBF1A"/>
</linearGradient>
<linearGradient id="paint6_linear" x1="111.533" y1="9.99326" x2="114.532" y2="17.6511" gradientUnits="userSpaceOnUse">
<stop stop-color="#FFE89E"/>
<stop offset="1" stop-color="#FFBF1A"/>
</linearGradient>
<linearGradient id="paint7_linear" x1="112.965" y1="40.9152" x2="117.378" y2="52.1817" gradientUnits="userSpaceOnUse">
<stop stop-color="#FFE89E"/>
<stop offset="1" stop-color="#FFBF1A"/>
</linearGradient>
<linearGradient id="paint8_linear" x1="56.8296" y1="92.9402" x2="21.0194" y2="191.572" gradientUnits="userSpaceOnUse">
<stop stop-color="#FFD481"/>
<stop offset="1" stop-color="#FA620C"/>
</linearGradient>
<linearGradient id="paint9_linear" x1="42.1451" y1="100.5" x2="150.825" y2="216.639" gradientUnits="userSpaceOnUse">
<stop stop-color="#FFD481"/>
<stop offset="0.83311" stop-color="#FA620C"/>
</linearGradient>
<linearGradient id="paint10_linear" x1="27.9951" y1="97.3904" x2="25.0874" y2="139.413" gradientUnits="userSpaceOnUse">
<stop stop-color="#FFD481"/>
<stop offset="1" stop-color="#FA620C"/>
</linearGradient>
<linearGradient id="paint11_linear" x1="121.254" y1="97.3904" x2="126.426" y2="138.971" gradientUnits="userSpaceOnUse">
<stop stop-color="#FFD481"/>
<stop offset="1" stop-color="#FA620C"/>
</linearGradient>
<linearGradient id="paint12_linear" x1="57.3863" y1="77.3264" x2="55.7712" y2="100.245" gradientUnits="userSpaceOnUse">
<stop stop-color="#FF9F81"/>
<stop offset="1" stop-color="#F53838"/>
</linearGradient>
<linearGradient id="paint13_linear" x1="89.994" y1="56.7739" x2="88.4333" y2="78.9204" gradientUnits="userSpaceOnUse">
<stop stop-color="#FF9F81"/>
<stop offset="1" stop-color="#F53838"/>
</linearGradient>
<linearGradient id="paint14_linear" x1="59.1189" y1="48.303" x2="57.8604" y2="66.162" gradientUnits="userSpaceOnUse">
<stop stop-color="#FF9F81"/>
<stop offset="1" stop-color="#F53838"/>
</linearGradient>
<linearGradient id="paint15_linear" x1="77.4443" y1="34.0331" x2="76.3058" y2="50.1886" gradientUnits="userSpaceOnUse">
<stop stop-color="#FF9F81"/>
<stop offset="1" stop-color="#F53838"/>
</linearGradient>
<linearGradient id="paint16_linear" x1="65.5854" y1="19.2038" x2="64.7034" y2="31.7188" gradientUnits="userSpaceOnUse">
<stop stop-color="#FF9F81"/>
<stop offset="1" stop-color="#F53838"/>
</linearGradient>
<linearGradient id="paint17_linear" x1="72.21" y1="19.3853" x2="72.21" y2="200.709" gradientUnits="userSpaceOnUse">
<stop stop-color="white" stop-opacity="0"/>
<stop offset="1" stop-color="#FE9277"/>
</linearGradient>
</defs>
</svg>

<svg width="146" height="167" viewBox="0 0 146 167" fill="none" xmlns="http://www.w3.org/2000/svg">
    <path fill-rule="evenodd" clip-rule="evenodd" d="M52.025 40.687c.657-1.425 1.426-2.533 1.934-3.117a12.257 12.257 0 0 1-.53 3.687 12.258 12.258 0 0 1 3.066 2.114c-.774-.024-2.11-.211-3.602-.697-.688 1.517-1.558 2.564-2.128 3.052.039-1.277.307-2.5.685-3.604-1.067-.473-2.148-1.107-3.111-1.946.745-.087 2.105-.014 3.686.511z" fill="url(#a)"/>
    <path fill-rule="evenodd" clip-rule="evenodd" d="M46.833 26.405c.438-.95.95-1.687 1.288-2.075a8.157 8.157 0 0 1-.354 2.454c.674.325 1.373.78 2.042 1.407-.515-.016-1.404-.14-2.398-.464-.458 1.01-1.037 1.707-1.416 2.032.026-.85.204-1.665.456-2.4a8.225 8.225 0 0 1-2.071-1.294c.496-.059 1.401-.01 2.453.34z" fill="url(#b)"/>
    <path fill-rule="evenodd" clip-rule="evenodd" d="M32.783 12.207c.656-1.426 1.426-2.533 1.934-3.117a12.26 12.26 0 0 1-.531 3.687 12.26 12.26 0 0 1 3.067 2.113c-.774-.023-2.11-.21-3.602-.697-.688 1.518-1.558 2.565-2.128 3.053.039-1.277.307-2.5.685-3.605-1.067-.472-2.148-1.106-3.111-1.945.745-.087 2.105-.014 3.686.511z" fill="url(#c)"/>
    <path fill-rule="evenodd" clip-rule="evenodd" d="M30.556 44.172c.967-2.097 2.098-3.727 2.846-4.586a18.033 18.033 0 0 1-.781 5.424 18.032 18.032 0 0 1 4.512 3.11c-1.139-.035-3.103-.31-5.3-1.026-1.011 2.233-2.291 3.774-3.13 4.491.057-1.878.452-3.678 1.007-5.303-1.569-.695-3.159-1.627-4.576-2.861 1.096-.129 3.096-.021 5.422.751z" fill="url(#d)"/>
    <circle cx="36.369" cy="29.816" r=".847" transform="rotate(21.387 36.37 29.816)" fill="#2F235A"/>
    <circle cx="57.33" cy="19.172" r=".847" transform="rotate(21.387 57.33 19.172)" fill="#FE9076"/>
    <circle cx="17.095" cy="23.796" r=".847" transform="rotate(21.387 17.095 23.796)" fill="#FFA400"/>
    <circle cx="35.272" cy="57.882" r=".847" transform="rotate(21.387 35.272 57.882)" fill="#23BB86"/>
    <path d="M56.687 15.126c-.824-3.145-3.797-10.34-9.099-13.95" stroke="#FE9076" stroke-width=".737" stroke-linecap="round"/>
    <path d="M14.596 20.381c-2.05-2.524-7.728-7.848-14.048-8.947" stroke="#FFA400" stroke-width=".737" stroke-linecap="round"/>
    <path d="M31.67 59.112c-1.816.662-6.388 2.773-10.146 5.916" stroke="#23BB86" stroke-width=".737" stroke-linecap="round"/>
    <path fill-rule="evenodd" clip-rule="evenodd" d="M93.975 40.687c-.656-1.425-1.426-2.533-1.934-3.117-.01 1.377.202 2.613.53 3.687a12.258 12.258 0 0 0-3.066 2.114c.774-.024 2.11-.211 3.602-.697.688 1.517 1.558 2.564 2.128 3.052-.039-1.277-.307-2.5-.685-3.604 1.067-.473 2.148-1.107 3.111-1.946-.745-.087-2.105-.014-3.686.511z" fill="url(#e)"/>
    <path fill-rule="evenodd" clip-rule="evenodd" d="M99.167 26.405c-.438-.95-.95-1.687-1.288-2.075-.007.917.135 1.739.353 2.454a8.158 8.158 0 0 0-2.04 1.407c.514-.016 1.403-.14 2.397-.464.458 1.01 1.037 1.707 1.416 2.032a8.219 8.219 0 0 0-.456-2.4 8.223 8.223 0 0 0 2.071-1.294c-.496-.059-1.401-.01-2.453.34z" fill="url(#f)"/>
    <path fill-rule="evenodd" clip-rule="evenodd" d="M113.217 12.207c-.656-1.426-1.426-2.533-1.934-3.117-.01 1.377.202 2.613.531 3.687a12.28 12.28 0 0 0-3.067 2.113c.774-.023 2.109-.21 3.602-.697.688 1.518 1.558 2.565 2.128 3.053-.039-1.277-.307-2.5-.685-3.605 1.067-.472 2.148-1.106 3.111-1.945-.745-.087-2.105-.014-3.686.511z" fill="url(#g)"/>
    <path fill-rule="evenodd" clip-rule="evenodd" d="M115.444 44.172c-.967-2.097-2.098-3.727-2.846-4.586a18.011 18.011 0 0 0 .781 5.424 18.042 18.042 0 0 0-4.512 3.11c1.139-.035 3.103-.31 5.299-1.026 1.012 2.233 2.292 3.774 3.131 4.491-.057-1.878-.452-3.678-1.007-5.303 1.569-.695 3.159-1.627 4.576-2.861-1.096-.129-3.096-.021-5.422.751z" fill="url(#h)"/>
    <circle r=".847" transform="scale(-1 1) rotate(21.387 -133.765 -275.382)" fill="#2F235A"/>
    <circle r=".847" transform="scale(-1 1) rotate(21.387 -95.1 -225.203)" fill="#FE9076"/>
    <circle r=".847" transform="scale(-1 1) rotate(21.387 -127.462 -329.427)" fill="#FFA400"/>
    <circle r=".847" transform="scale(-1 1) rotate(21.387 -208.628 -264.254)" fill="#23BB86"/>
    <path d="M89.314 15.126c.823-3.145 3.796-10.34 9.098-13.95" stroke="#FE9076" stroke-width=".737" stroke-linecap="round"/>
    <path d="M131.404 20.381c2.049-2.524 7.728-7.848 14.048-8.947" stroke="#FFA400" stroke-width=".737" stroke-linecap="round"/>
    <path d="M114.33 59.112c1.816.662 6.387 2.773 10.146 5.916" stroke="#23BB86" stroke-width=".737" stroke-linecap="round"/>
    <path fill="url(#i)" d="M26.815 104.439h89.85v62.11h-89.85z"/>
    <mask id="j" maskUnits="userSpaceOnUse" x="26" y="104" width="91" height="63">
        <path fill="#C4C4C4" d="M26.815 104.439h89.85v62.11h-89.85z"/>
    </mask>
    <g mask="url(#j)">
        <path d="M31.067 102.858h61.182L78.42 126.869H17.238l13.829-24.011z" fill="#000" fill-opacity=".07"/>
        <path fill="url(#k)" d="M87.917 104.439h89.85v62.11h-89.85z"/>
    </g>
    <path d="M26.736 104.439h61.182l-11.819 19.723H14.919l11.818-19.723z" fill="url(#l)"/>
    <mask id="m" maskUnits="userSpaceOnUse" x="87" y="104" width="30" height="63">
        <path fill="#C4C4C4" d="M87.918 104.439h28.748v62.11H87.918z"/>
    </mask>
    <g mask="url(#m)">
        <path d="M113.166 104.336H84.373l13.53 22.707h28.792l-13.529-22.707z" fill="#000" fill-opacity=".07"/>
    </g>
    <path d="M116.711 104.439H87.918l11.819 19.723h28.792l-11.818-19.723z" fill="url(#n)"/>
    <circle cx="56.743" cy="88.62" r="8.491" fill="url(#o)"/>
    <circle cx="89.373" cy="67.686" r="8.205" fill="url(#p)"/>
    <circle cx="58.618" cy="57.103" r="6.616" fill="url(#q)"/>
    <circle cx="76.991" cy="41.994" r="5.985" fill="url(#r)"/>
    <circle cx="65.234" cy="25.37" r="4.636" fill="url(#s)"/>
    <circle cx="73.201" cy="66.037" r="1.65" fill="#FFA800" fill-opacity=".23"/>
    <circle cx="100.642" cy="52.137" r="1.65" fill="#FFA800" fill-opacity=".23"/>
    <circle cx="102.292" cy="25.37" r="1.65" fill="#FFA800" fill-opacity=".23"/>
    <circle cx="46.602" cy="28.357" r="1.65" fill="#FFA800" fill-opacity=".23"/>
    <circle cx="80.201" cy="92.284" r="1.65" fill="#FFA800" fill-opacity=".23"/>
    <circle cx="38.796" cy="62.736" r="1.65" fill="#FFA800" fill-opacity=".23"/>
    <path d="M116.878 104.733H26.744L12.902 19.385H133.5l-16.622 85.348z" fill="url(#t)"/>
    <defs>
        <linearGradient id="a" x1="53.709" y1="38.474" x2="50.71" y2="46.131" gradientUnits="userSpaceOnUse">
            <stop stop-color="#FFE89E"/>
            <stop offset="1" stop-color="#FFBF1A"/>
        </linearGradient>
        <linearGradient id="b" x1="47.955" y1="24.931" x2="45.958" y2="30.028" gradientUnits="userSpaceOnUse">
            <stop stop-color="#FFE89E"/>
            <stop offset="1" stop-color="#FFBF1A"/>
        </linearGradient>
        <linearGradient id="c" x1="34.467" y1="9.993" x2="31.468" y2="17.651" gradientUnits="userSpaceOnUse">
            <stop stop-color="#FFE89E"/>
            <stop offset="1" stop-color="#FFBF1A"/>
        </linearGradient>
        <linearGradient id="d" x1="33.035" y1="40.915" x2="28.622" y2="52.182" gradientUnits="userSpaceOnUse">
            <stop stop-color="#FFE89E"/>
            <stop offset="1" stop-color="#FFBF1A"/>
        </linearGradient>
        <linearGradient id="e" x1="92.291" y1="38.474" x2="95.29" y2="46.131" gradientUnits="userSpaceOnUse">
            <stop stop-color="#FFE89E"/>
            <stop offset="1" stop-color="#FFBF1A"/>
        </linearGradient>
        <linearGradient id="f" x1="98.045" y1="24.931" x2="100.042" y2="30.028" gradientUnits="userSpaceOnUse">
            <stop stop-color="#FFE89E"/>
            <stop offset="1" stop-color="#FFBF1A"/>
        </linearGradient>
        <linearGradient id="g" x1="111.533" y1="9.993" x2="114.532" y2="17.651" gradientUnits="userSpaceOnUse">
            <stop stop-color="#FFE89E"/>
            <stop offset="1" stop-color="#FFBF1A"/>
        </linearGradient>
        <linearGradient id="h" x1="112.965" y1="40.915" x2="117.378" y2="52.182" gradientUnits="userSpaceOnUse">
            <stop stop-color="#FFE89E"/>
            <stop offset="1" stop-color="#FFBF1A"/>
        </linearGradient>
        <linearGradient id="i" x1="56.83" y1="92.94" x2="21.019" y2="191.572" gradientUnits="userSpaceOnUse">
            <stop stop-color="#FFD481"/>
            <stop offset="1" stop-color="#FA620C"/>
        </linearGradient>
        <linearGradient id="k" x1="42.145" y1="100.5" x2="150.825" y2="216.639" gradientUnits="userSpaceOnUse">
            <stop stop-color="#FFD481"/>
            <stop offset=".833" stop-color="#FA620C"/>
        </linearGradient>
        <linearGradient id="l" x1="27.995" y1="97.39" x2="25.087" y2="139.413" gradientUnits="userSpaceOnUse">
            <stop stop-color="#FFD481"/>
            <stop offset="1" stop-color="#FA620C"/>
        </linearGradient>
        <linearGradient id="n" x1="121.254" y1="97.39" x2="126.426" y2="138.971" gradientUnits="userSpaceOnUse">
            <stop stop-color="#FFD481"/>
            <stop offset="1" stop-color="#FA620C"/>
        </linearGradient>
        <linearGradient id="o" x1="57.386" y1="77.326" x2="55.771" y2="100.245" gradientUnits="userSpaceOnUse">
            <stop stop-color="#FF9F81"/>
            <stop offset="1" stop-color="#F53838"/>
        </linearGradient>
        <linearGradient id="p" x1="89.994" y1="56.774" x2="88.433" y2="78.92" gradientUnits="userSpaceOnUse">
            <stop stop-color="#FF9F81"/>
            <stop offset="1" stop-color="#F53838"/>
        </linearGradient>
        <linearGradient id="q" x1="59.119" y1="48.303" x2="57.86" y2="66.162" gradientUnits="userSpaceOnUse">
            <stop stop-color="#FF9F81"/>
            <stop offset="1" stop-color="#F53838"/>
        </linearGradient>
        <linearGradient id="r" x1="77.444" y1="34.033" x2="76.306" y2="50.189" gradientUnits="userSpaceOnUse">
            <stop stop-color="#FF9F81"/>
            <stop offset="1" stop-color="#F53838"/>
        </linearGradient>
        <linearGradient id="s" x1="65.585" y1="19.204" x2="64.703" y2="31.719" gradientUnits="userSpaceOnUse">
            <stop stop-color="#FF9F81"/>
            <stop offset="1" stop-color="#F53838"/>
        </linearGradient>
        <linearGradient id="t" x1="72.21" y1="19.385" x2="72.21" y2="200.709" gradientUnits="userSpaceOnUse">
            <stop stop-color="#fff" stop-opacity="0"/>
            <stop offset="1" stop-color="#FE9277"/>
        </linearGradient>
    </defs>
</svg>
